/* XPM */
static char *figpad[] = {
/* columns rows colors chars-per-pixel */
"32 32 135 2 ",
"   c None",
".  c #1A7B4D",
"X  c #1D8655",
"o  c #1E8957",
"O  c #1E8B58",
"+  c #208E5B",
"@  c #21925E",
"#  c #229661",
"$  c #249C64",
"%  c #2A9964",
"&  c #309365",
"*  c #25A067",
"=  c #26A36A",
"-  c #29A46B",
";  c #27A96D",
":  c #28AA6E",
">  c #2BB36F",
",  c #29AD71",
"<  c #34A772",
"1  c #31AE75",
"2  c #2BB474",
"3  c #2CBB75",
"4  c #2EB778",
"5  c #2CB978",
"6  c #39B475",
"7  c #35BC7E",
"8  c #38B97E",
"9  c #529D79",
"0  c #44AB7C",
"q  c #48AE7F",
"w  c #44B17F",
"e  c #40BA7D",
"r  c #2EC176",
"t  c #2FC578",
"y  c #30C577",
"u  c #31C977",
"i  c #32C779",
"p  c #32CB79",
"a  c #34D17A",
"s  c #4BAF80",
"d  c #4DB082",
"f  c #46B880",
"g  c #54B287",
"h  c #61A686",
"j  c #65AA87",
"k  c #65A788",
"l  c #65BB93",
"z  c #6EBC97",
"x  c #76BA9B",
"c  c #7ABE9F",
"v  c #4AC08A",
"b  c #4DCC8A",
"n  c #58CB8F",
"m  c #58C795",
"M  c #6EC99E",
"N  c #7EE39A",
"B  c #7AC9A4",
"V  c #90AD9D",
"C  c #A6AEA7",
"Z  c #C0BFBC",
"A  c #81CFA7",
"S  c #87C6A9",
"D  c #8AC3A8",
"F  c #81CCA9",
"G  c #8CCBAD",
"H  c #84D1A9",
"J  c #94CBB2",
"K  c #9ACCB4",
"L  c #95D2B5",
"P  c #9FD6BB",
"I  c #9BDABC",
"U  c #A2CBB8",
"Y  c #A9C8B9",
"T  c #B0CDBF",
"R  c #A1D3BB",
"E  c #BEC9C1",
"W  c #ADD6C2",
"Q  c #ACD8C0",
"!  c #B5D4C4",
"~  c #B6D7C8",
"^  c #BCD6C9",
"/  c #B8DFCA",
"(  c #B4E0CA",
")  c #BDE1CF",
"_  c #BBE8CE",
"`  c #C8CFC9",
"'  c #CAD3CB",
"]  c #C6DCD1",
"[  c #CADBD2",
"{  c #D7D6D4",
"}  c #DDDCDA",
"|  c #E0DFDD",
" . c #C7E5D6",
".. c #CDE4D8",
"X. c #D4E4DC",
"o. c #D4E7DD",
"O. c #DDE1DE",
"+. c #DBE5E0",
"@. c #DDE9E3",
"#. c #E1E6E3",
"$. c #E7E6E5",
"%. c #E6E7E6",
"&. c #E2E5E2",
"*. c #E3EDE7",
"=. c #E5ECE7",
"-. c #EAE9E9",
";. c #EBEAE9",
":. c gray92",
">. c #ECEAE9",
",. c #ECEBEA",
"<. c #EAEDEB",
"1. c #EDECEB",
"2. c #EDECEC",
"3. c #EFEEED",
"4. c #EEEFED",
"5. c #EDEBEA",
"6. c #E4F1E8",
"7. c #E6F0EB",
"8. c #EAF1ED",
"9. c #EEF2EF",
"0. c #ECF2EF",
"q. c #F1F0EF",
"w. c #F1F0EF",
"e. c #F2F1F0",
"r. c #F4F3F2",
"t. c #F3F4F2",
"y. c #F5F5F3",
"u. c #F5F4F3",
"i. c #F6F5F4",
"p. c gray97",
"a. c #F6F5F4",
"s. c #F8F8F8",
"d. c #F9FBFA",
"f. c #FEFEFE",
"g. c #FEFEFE",
/* pixels */
"                                                                ",
"                          N                                     ",
"                          6                                     ",
"        i.i.i.i.i.i.i.i.i./ f y.i.i.i.i.i.i.i.i.i.i.i.i.        ",
"      i.i.i.i.i.i.i.i.i.-.%.e  .i.i.i.i.i.i.i.i.i.i.i.i.i.      ",
"      i.r.q.q.@.L B L o.3.} A H q.q.q.=.P F J ..q.q.q.r.i.      ",
"      i.i.i.W 1 , 2 2 4 I ,.Q n i.i.) 8 2 2 , , G y.i.i.i.      ",
"      i.r.] : : , 2 2 2 5 ( [ i 3.o.7 2 2 2 , : : R q.r.i.      ",
"      i.y.z : , 2 2 2 2 5 m %.p 7.F 5 2 2 2 , , : w i.i.i.      ",
"      i.3.s ; , 2 3 3 2 5 5 +.a _ v 5 2 2 2 2 , : - 8.i.i.      ",
"      i.,.d ; : , 2 3 r 2 2 M a b 5 2 2 3 3 , : ; - <.r.i.      ",
"      i.e.x - : : , 2 p 3 2 3 a p 2 2 2 i 2 : : ; d i.i.i.      ",
"      i.r.c - ; : : , r y 3 p p p p p p t , : ; - g q.r.i.      ",
"      i.q.0 = - ; 2 y a a p r p 2 3 y y i t 2 ; = = *.i.i.      ",
"      i.[ = = ; 3 3 2 : : : , p 2 , : : : : 2 2 - = R i.i.      ",
"      i.! = - , : - - ; ; : : p 2 : : ; ; - - : : = G r.i.      ",
"      i.! = ; - = = = g - - ; p : ; - q < = = = - - G i.i.      ",
"      i.^ = = = = = K ! = = = p : = = S T < = = = = K r.i.      ",
"      i.,.U D D J J 0 = = = = p : = = = < c K D D K 0.i.i.      ",
"      i.i.i.i.i.~ = = = = = = a : = = = = = l t.i.i.i.i.i.      ",
"      i.r.q.q.1.0 = = = = = ; p p 3 = = = = - ^ -.-.-.3.,.      ",
"      i.i.i.i.#.= = = = = = > r - 3 2 = = = ~ f.f.f.f.i.,.      ",
"      i.r.q.q.O.= = = - : : r 2 = = 3 : = $ d.f.f.f.i.,.i.      ",
"      i.i.i.i.-.0 * ; 2 3 u a ; = = : 2 = # f.f.f.d.-.i.i.      ",
"      i.i.i.i.e.x * - $ $ 3 3 $ $ $ $ : $ # f.f.d.-.i.i.i.      ",
"      y.r.q.q.q.Y # # # - 3 $ $ $ $ $ - $ @ f.0.-.i.i.i.y.      ",
"      1.i.i.i.i.#.% # # : $ # # # # # $ # + 7.#.i.i.i.i.1.      ",
"      ' | } } } { h @ # # @ @ @ @ @ @ @ @ 9 ` } } } } | '       ",
"      j E Z Z Z Z C & + @ @ @ @ @ @ @ 9 V Z Z Z Z Z Z E k       ",
"          O O O O o . o O O O O o o o O O O O O O O O           ",
"                                                                ",
"                                                                "
};
